Sources/FrostedUI/Resources/Icons.xcassets/tShirtFilled32.imageset/t-shirt-filled-32.svg

<svg width="32" height="32" viewBox="0 0 32 32" fill="none" xmlns="http://www.w3.org/2000/svg" data-fui-icon="true">
  <path
    d="M11.1445 2.53613C11.341 2.47269 11.5565 2.49314 11.7393 2.59473C11.9479 2.71085 12.0893 2.91933 12.1191 3.15625C12.1196 3.15964 12.1205 3.16661 12.1221 3.17676C12.1253 3.19721 12.1318 3.23073 12.1406 3.27539C12.1584 3.36508 12.1882 3.49882 12.2363 3.66113C12.3336 3.98869 12.5 4.42035 12.7725 4.8457C13.2998 5.66862 14.2357 6.5 16 6.5C17.7643 6.49999 18.7003 5.66861 19.2275 4.8457C19.5 4.42035 19.6664 3.98869 19.7637 3.66113C19.8118 3.49883 19.8416 3.36507 19.8594 3.27539C19.8682 3.23074 19.8747 3.19721 19.8779 3.17676C19.8795 3.16661 19.8804 3.15964 19.8809 3.15625C19.9107 2.91932 20.052 2.71085 20.2607 2.59473C20.4696 2.47864 20.7214 2.46854 20.9385 2.56836L30.875 7.1377C31.773 7.55057 32.1512 8.62443 31.71 9.50879L29.4307 14.0771C29.0488 14.8424 28.1693 15.2194 27.3516 14.9688L26 14.5537V27.75C26 28.7165 25.2165 29.5 24.25 29.5H7.75C6.7835 29.5 6 28.7165 6 27.75V14.5537L4.64844 14.9688C3.83072 15.2194 2.95125 14.8424 2.56934 14.0771L0.290039 9.50879C-0.151231 8.62441 0.227016 7.55056 1.125 7.1377L11.0615 2.56836L11.1445 2.53613Z"
    fill="currentColor"
  />
</svg>

<svg xmlns="http://www.w3.org/2000/svg" width="32" height="32" fill="none" data-fui-icon="true" viewBox="0 0 32 32"><path fill="currentColor" d="M11.145 2.536a.75.75 0 0 1 .974.62l.003.02.019.1a4.706 4.706 0 0 0 .632 1.57C13.3 5.669 14.236 6.5 16 6.5s2.7-.831 3.227-1.654a4.7 4.7 0 0 0 .65-1.67l.004-.02a.75.75 0 0 1 1.058-.588l9.936 4.57a1.75 1.75 0 0 1 .835 2.37l-2.28 4.57a1.75 1.75 0 0 1-2.078.89L26 14.555V27.75a1.75 1.75 0 0 1-1.75 1.75H7.75A1.75 1.75 0 0 1 6 27.75V14.554l-1.352.415a1.75 1.75 0 0 1-2.079-.892L.29 9.51a1.75 1.75 0 0 1 .835-2.371l9.937-4.57z"/></svg>
